images/icons/v2/view-once-24.svg

<svg height="24" viewBox="0 0 24 24" width="24" xmlns="http://www.w3.org/2000/svg"><path d="m10.051 16h-1.522v-6.436h-.069a2.184 2.184 0 0 1 -1.73.622v-1.228a1.94 1.94 0 0 0 1.87-1.333h1.456zm4.618-3.962 1.288-2.319h1.565l-1.892 3.141 1.926 3.14h-1.556l-1.328-2.261-1.32 2.261h-1.571l1.919-3.14-1.87-3.141h1.57zm7.57 3.962a11.009 11.009 0 1 0 -2.448 3.755l-.291 1.745v1.5h1.5v-5.5h-5.5v1.5h1.5l1.7-.284a9.56 9.56 0 1 1 1.905-2.716z"/></svg>

<svg xmlns="http://www.w3.org/2000/svg" width="24" height="24" viewBox="0 0 24 24"><title>view-once-24</title><path d="M10.051,16H8.529V9.564H8.46a2.184,2.184,0,0,1-1.73.622V8.958A1.94,1.94,0,0,0,8.6,7.625h1.456Zm4.618-3.962,1.288-2.319h1.565L15.63,12.86,17.556,16H16l-1.328-2.261L13.352,16H11.781L13.7,12.86,11.83,9.719H13.4ZM22.239,16a11.009,11.009,0,1,0-2.448,3.755L19.5,21.5V23H21V17.5H15.5V19H17l1.7-.284A9.56,9.56,0,1,1,20.605,16Z"/></svg>
